X:3169
T:Colección Feij\'oo: N\'umero 13
O:Galicia (Spain)
B:Libro Aires da Terra, de J.L. Calle
Z:Transcrito por Jos\'e J. Presedo
Z:Covertido de Midi a abc por Antonio-Nil
N:http://www.arrakis.es/~jpresedo/
M: 4/4
L: 1/8
Q:1/4=100
K:D % 2 sharps
z2 F/2F/2B/2F/2 F/2c/2F/2F<dd/2|c/2B/2c c/2e/2d/2c/2 d/2e/2f/2B/2 F/2F/2B/2F/2|F/2c/2F/2F<dd/2 c/2B/2c c/2e/2d/2c/2|Bz F/2F/2B/2F/2 F/2c/2F/2F<dd/2|
c/2B/2c c/2e/2d/2c/2 d/2e/2f/2B/2 F/2F/2B/2F/2|F/2c/2F/2F<dd/2 c/2B/2c c/2e/2d/2c/2|Bz2A/2B/2 c/2d/2e/2d/2 cz|zB/2A/2 B/2d/2c/2B/2 Az2F/2G/2|
A/2B/2A/2F/2 G2 zE/2F/2 G/2A/2G/2E/2|Fz2A/2B/2 c/2d/2e/2d/2 cz|zB/2A/2 B/2d/2c/2B/2 Az2G/2[c/2A/2]|[c/2A/2]G/2[c/2A/2][c/2A/2] G/2B/2B/2A/2 B/2B/2c/2B/2 A/2B/2A/2G/2|
Fz2A/2B/2 c/2d/2e/2d/2 cz|zB/2A/2 B/2d/2c/2B/2 Az2F/2G/2|A/2B/2A/2F/2 G2 zE/2F/2 G/2A/2G/2E/2|Fz2A/2B/2 c/2d/2e/2d/2 cz|
zB/2A/2 B/2d/2c/2B/2 Az2G/2[c/2A/2]|[c/2A/2]G/2[c/2A/2][c/2A/2] G/2B/2B/2A/2 B/2B/2c/2B/2 A/2B/2A/2G/2|Fz F/2F/2B/2F/2 F/2c/2F/2F<dd/2|c/2B/2c c/2e/2d/2c/2 d/2e/2f/2B/2 F/2F/2B/2F/2|
F/2c/2F/2F<dd/2 c/2B/2c c/2e/2d/2c/2|Bz F/2F/2B/2F/2 F/2c/2F/2F<dd/2|c/2B/2c c/2e/2d/2c/2 d/2e/2f/2B/2 F/2F/2B/2F/2|F/2c/2F/2F<dd/2 c/2B/2c c/2e/2d/2c/2|
Bz2A/2B/2 c/2d/2e/2d/2 cz|zB/2A/2 B/2d/2c/2B/2 Az2F/2G/2|A/2B/2A/2F/2 G2 zE/2F/2 G/2A/2G/2E/2|Fz2A/2B/2 c/2d/2e/2d/2 cz|
zB/2A/2 B/2d/2c/2B/2 Az2G/2[c/2A/2]|[c/2A/2]G/2[c/2A/2][c/2A/2] G/2B/2B/2A/2 B/2B/2c/2B/2 A/2B/2A/2G/2|Fz2A/2B/2 c/2d/2e/2d/2 cz|zB/2A/2 B/2d/2c/2B/2 Az2F/2G/2|
A/2B/2A/2F/2 G2 zE/2F/2 G/2A/2G/2E/2|Fz2A/2B/2 c/2d/2e/2d/2 cz|zB/2A/2 B/2d/2c/2B/2 Az2G/2[c/2A/2]|[c/2A/2]G/2[c/2A/2][c/2A/2] G/2B/2B/2A/2 B/2B/2c/2B/2 A/2B/2A/2G/2|
F


